packages/orbit-components/src/icons/svg/invoice.svg

<!--character:171:550:1744-->
  <svg width="24" height="24" viewBox="0 0 24 24" >
<path   d="M19.9608 6.87833L15.4483 2.36583C15.2134 2.1325 14.8961 2.00107 14.565 2H4.90997C4.21962 2 3.65997 2.55964 3.65997 3.25V20.75C3.65997 21.4404 4.21962 22 4.90997 22H19.91C20.1401 22 20.3266 21.8135 20.3266 21.5833V7.76167C20.3275 7.43019 20.1958 7.11214 19.9608 6.87833ZM10.1741 11.3192L7.36578 10.2692C6.5809 9.89489 6.10324 9.0802 6.15995 8.2125C6.15243 7.12048 6.98033 6.20361 8.06745 6.1C8.16891 6.08433 8.24366 5.99683 8.24328 5.89417V5.33333C8.24328 4.8731 8.61638 4.5 9.07662 4.5C9.53686 4.5 9.90995 4.8731 9.90995 5.33333V5.85417C9.90995 5.96923 10.0032 6.0625 10.1183 6.0625H11.16C11.6202 6.0625 11.9933 6.4356 11.9933 6.89583C11.9933 7.35607 11.6202 7.72917 11.16 7.72917H8.55578C7.82662 7.72917 7.82662 8.0925 7.82662 8.2125C7.81338 8.39543 7.86764 8.57686 7.97912 8.7225L10.7875 9.7725C11.5738 10.1473 12.0518 10.9642 11.9933 11.8333C11.9986 12.9238 11.1713 13.8382 10.0858 13.9417C9.98432 13.9573 9.90957 14.0448 9.90995 14.1475V14.7083C9.90995 15.1686 9.53686 15.5417 9.07662 15.5417C8.61638 15.5417 8.24328 15.1686 8.24328 14.7083V14.1875C8.24328 14.0724 8.15001 13.9792 8.03495 13.9792H6.99328C6.53305 13.9792 6.15995 13.6061 6.15995 13.1458C6.15995 12.6856 6.53305 12.3125 6.99328 12.3125H9.59745C10.3266 12.3125 10.3266 11.9492 10.3266 11.8292C10.3399 11.6462 10.2856 11.4648 10.1741 11.3192ZM18.035 14.9167C18.035 14.5715 17.7551 14.2917 17.41 14.2917H13.2433C12.8981 14.2917 12.6183 14.5715 12.6183 14.9167C12.6183 15.2618 12.8981 15.5417 13.2433 15.5417H17.41C17.7551 15.5417 18.035 15.2618 18.035 14.9167ZM14.285 11.1667C14.285 10.8215 14.5648 10.5417 14.91 10.5417H17.41C17.7551 10.5417 18.035 10.8215 18.035 11.1667C18.035 11.5118 17.7551 11.7917 17.41 11.7917H14.91C14.5648 11.7917 14.285 11.5118 14.285 11.1667ZM18.035 18.6667C18.035 18.3215 17.7552 18.0417 17.41 18.0417H9.07666C8.73148 18.0417 8.45166 18.3215 8.45166 18.6667C8.45166 19.0118 8.73148 19.2917 9.07666 19.2917H17.41C17.7552 19.2917 18.035 19.0118 18.035 18.6667Z" />
</svg>

<!--character:171:550:1744-->
<svg width="24" height="24" viewBox="0 0 24 24" xmlns="http://www.w3.org/2000/svg"><path d="M19.9608 6.8783l-4.5125-4.5125A1.2592 1.2592 0 0 0 14.565 2H4.91c-.6904 0-1.25.5596-1.25 1.25v17.5c0 .6904.5596 1.25 1.25 1.25h15a.4167.4167 0 0 0 .4167-.4167V7.7617a1.2417 1.2417 0 0 0-.3659-.8834zm-9.7866 4.4409l-2.8084-1.05A2.125 2.125 0 0 1 6.16 8.2125c-.0075-1.092.8204-2.0089 1.9075-2.1125a.2075.2075 0 0 0 .1758-.2058v-.5609a.8333.8333 0 0 1 1.6667 0v.5209c0 .115.0933.2083.2083.2083H11.16a.8333.8333 0 1 1 0 1.6667H8.5558c-.7291 0-.7291.3633-.7291.4833a.75.75 0 0 0 .1525.51l2.8083 1.05a2.125 2.125 0 0 1 1.2058 2.0608c.0054 1.0905-.822 2.0049-1.9075 2.1084a.2075.2075 0 0 0-.1758.2058v.5608a.8333.8333 0 1 1-1.6667 0v-.5208a.2083.2083 0 0 0-.2083-.2083H6.9933a.8333.8333 0 0 1 0-1.6667h2.6042c.7292 0 .7292-.3633.7292-.4833a.75.75 0 0 0-.1525-.51zm7.2358 2.9725a.625.625 0 1 1 0 1.25h-4.1667a.625.625 0 0 1 0-1.25H17.41zm-3.125-3.125a.625.625 0 0 1 .625-.625h2.5a.625.625 0 1 1 0 1.25h-2.5a.625.625 0 0 1-.625-.625zm3.125 6.875a.625.625 0 1 1 0 1.25H9.0767a.625.625 0 0 1 0-1.25H17.41z"/></svg>
